X:323
%%etbk:tnset id:98,pos:5,rep:3x,ant:
%%etbk:wsite http://www.thesession.org/tunes/display/1049
%%etbk:pldat 2016-06-22T15:16,2016-06-18T15:54,2016-05-04T14:09,2016-03-11T15:40,2016-03-09T15:51,2016-03-08T15:07,2016-02-23T16:59,2015-11-02T18:22,2015-10-27T16:54,2015-10-25T14:52,2015-10-21T16:29,2015-10-07T15:43,2015-06-23T18:55,2015-03-13T17:55,2015-03-10T16:22,2015-03-05T18:02,2015-02-04T16:50,2014-11-06T18:09,2014-11-04T16:36,2014-11-02T14:09,2014-10-29T16:05,2014-08-21T19:37,2014-08-20T18:44,2014-06-25T16:26,2014-03-05T19:26,2014-03-02T16:36,2014-02-26T17:03,2014-02-16T13:40,2013-10-30T17:24,2013-10-29T17:26,2013-10-27T14:12,2013-10-23T18:16,2013-10-16T15:49,2013-10-11T18:12,2013-10-07T18:10
T: Pipe On The Hob, The
Z: Piano Box Version by Martin Fleischmann
H: Created 2013-02-19 /  Last Modified 2013-02-19
M: 6/8
L: 1/8
R: jig
K: Dmix
|: "D"!5!d!4!^c!5!d !2!A{c}A!1!G | !3!F2!1!D DED | "A"!2!EDE !5!c!4!B!5!c | "D"!2!E{G}E!1!D !1!D!2!F!1!A |
"D"!5!dcB !4!cBA | !3!BAG !2!A{c}A!1!G | "A"!2!EDE !5!c!4!B!5!c | "D"!2!E2!1!D D3:|
|: "D"!3!f2!1!d !1!d!2!^c!1!d | !3!f{g}f!1!d !1!d!2!^c!1!d | "C"{g}!2!e!1!d!2!B !3!c!3!c!1!d | !2!ede !5!age |
[1 "D"!3!f{g}f!1!d !1!d!2!^c!1!d | !3!f2!1!d !1!d!2!^c!1!d  | "A"{g}!2!ede !5!age | !2!e!1!d!2!^c !1!d3 :|
[2 "D"!3!f!2!f!3!f !4!gfg | !5!agf !4!gfe | !3!fed "A"!2!e!5!ag | {g}!2!e!1!d!2!^c "D"!1!!5!d3 ||


